X:462
T:Measured Obsession
C:Purcell, adapted by Fried de Metz Herman
L:1/8
%%MIDI gchord c2c
%%MIDI beat 100 95 80
S:Colin Hume's website,  colinhume.com  - chords can also be printed below the stave.
Q:1/4=112
M:3/4
K:Em
P:A
|: e2 | "Em"g2gf eB | "G"d2d2B2 | "Am"cBA2"D7"d2 | "G"B4B2 |\
"Em"e2ef gf | "B7"^d^cB2"Em"g2 | "B7"fe ^d^c Bd | "Em"e4 :|
P:B
e2 | "Em"eB AG FE | "G"B3cd2 | "Em"e2e^def | "B7"^d4b2 |\
"G"ba ga ba | "Em"gf e^d e2 | "B7"B3cB2 | "Em"e4G2 |
P:C
"Em"E2G^de2 | "B7"fe ^d^c B2 | "Am"A2ag fe | "B7"^d4B2 |\
"Am"c2cd eA | "Em"B2Bf g2 | "B7"^d3e fe | "Em"e4 |]

